src/icons/smarty.svg

<svg viewBox="0 0 24 24" xmlns="http://www.w3.org/2000/svg">
  <path
    d="M9.13913 20.577C9.13913 21.133 9.53712 21.53 10.0931 21.53H13.9051C14.4611 21.53 14.8581 21.133 14.8581 20.577V19.624H9.14012L9.13913 20.577ZM11.9991 2.46899C8.34612 2.46899 5.32812 5.48699 5.32812 9.13999C5.32812 11.443 6.44012 13.429 8.18712 14.62V16.764C8.18712 17.32 8.58412 17.717 9.14012 17.717H14.8581C15.4141 17.717 15.8111 17.32 15.8111 16.764V14.62C17.5581 13.429 18.6711 11.443 18.6711 9.13999C18.6711 5.48699 15.6521 2.46899 11.9991 2.46899ZM14.6991 13.032L13.9051 13.588V15.812H10.0931V13.588L9.29913 13.032C8.66385 12.6006 8.14362 12.0205 7.78372 11.3422C7.42381 10.6639 7.23514 9.90788 7.23413 9.13999C7.23808 7.87745 7.74138 6.66776 8.63413 5.775C9.52689 4.88225 10.7366 4.37895 11.9991 4.37499C13.2617 4.37895 14.4714 4.88225 15.3641 5.775C16.2569 6.66776 16.7602 7.87745 16.7641 9.13999C16.7631 9.90788 16.5744 10.6639 16.2145 11.3422C15.8546 12.0205 15.3344 12.6006 14.6991 13.032Z"
    fill="#FFCE00"
  />
</svg>

<svg
  viewBox="0 0 24 24"
  xml:space="preserve"
  xmlns="http://www.w3.org/2000/svg"
>
  <path
    d="M9.14 20.577c0 .556.398.953.954.953h3.812c.556 0 .953-.397.953-.953v-.953H9.141zM12 2.469c-3.653 0-6.671 3.018-6.671 6.671 0 2.303 1.112 4.289 2.859 5.48v2.144c0 .556.397.953.953.953h5.718c.556 0 .953-.397.953-.953V14.62c1.747-1.191 2.86-3.177 2.86-5.48 0-3.653-3.019-6.671-6.672-6.671zm2.7 10.563-.794.556v2.224h-3.812v-2.224l-.794-.556A4.712 4.712 0 0 1 7.235 9.14 4.78 4.78 0 0 1 12 4.375a4.78 4.78 0 0 1 4.765 4.765 4.712 4.712 0 0 1-2.065 3.892z"
    fill="#ffce00"
    style="fill: #ffce00"
  />
</svg>
